X: 427
T: Yuanyuan liaojian nashi shui
L: 1/8
M: 2/4
K: Ab
f'> e' c' c' [I:setbarnb 1]| 
c' b a f | 
bb2a | 
c4 | 
f'> e' c' c' | 
c' b a e | 
e ba2 | 
f4 |]

@@@ Tune index: 9301
